X:139
T:Hand Me Down the Tackle
Z: id:dc-reel-128
M:C
L:1/8
K:D Major
dDD2 FAA2|dfaf gfec|dDD2 FAA2|BGEF GABc|!
dDD2 FAA2|dfaf gfeg|faec dBAF|GFEF GABc:|!
d2fd Adfd|d2fd BAA2|d2fd Adfd|BGEF GABc|!
d2fd Adfd|Bdef g3e|faec dBAF|GFEF GABc|!
d2fd Adfd|d2fd BAA2|d2fd Adfd|Bdef g2fg|!
a^gab aff2|gfef gbag|faec dBAF|GFEF GABc|]!